src/lib/packages/icons/src/assets/line/flashlight.svg

<svg width="24" height="24" viewBox="0 0 24 24" fill="none" xmlns="http://www.w3.org/2000/svg">
<path d="M6.25 3.75V6.17212C6.25 6.42812 6.28699 6.68008 6.31299 6.93408C6.31099 6.95708 6.30005 6.977 6.30005 7C6.30005 7.056 6.32003 7.10596 6.33203 7.15796C6.50603 8.46596 7.00508 9.72388 7.80908 10.7759C8.09308 11.1469 8.25 11.6181 8.25 12.1011V19.499C8.25 20.739 9.259 21.749 10.5 21.749H13.5C14.741 21.749 15.75 20.739 15.75 19.499V12.1011C15.75 11.6181 15.9069 11.1469 16.1909 10.7759C16.9949 9.72388 17.494 8.46596 17.668 7.15796C17.68 7.10496 17.7 7.056 17.7 7C17.7 6.977 17.689 6.95708 17.687 6.93408C17.713 6.68008 17.75 6.42812 17.75 6.17212V3.75C17.75 2.923 17.077 2.25 16.25 2.25H7.75C6.923 2.25 6.25 2.923 6.25 3.75ZM14.25 12.1021V19.5C14.25 19.913 13.914 20.25 13.5 20.25H10.5C10.086 20.25 9.75 19.913 9.75 19.5V12.1021C9.75 11.2911 9.484 10.498 9 9.86499C8.519 9.23699 8.185 8.51098 7.979 7.75098H16.02C15.814 8.51198 15.48 9.23699 14.999 9.86499C14.516 10.497 14.25 11.2911 14.25 12.1021ZM16.25 3.75V6.17212C16.25 6.19812 16.2439 6.224 16.2439 6.25H7.75708C7.75708 6.224 7.75098 6.19812 7.75098 6.17212V3.75H16.25ZM7.75 3.75V3V3.75ZM12 12.25C12.414 12.25 12.75 12.586 12.75 13V15C12.75 15.414 12.414 15.75 12 15.75C11.586 15.75 11.25 15.414 11.25 15V13C11.25 12.586 11.586 12.25 12 12.25Z" fill="currentColor"/>
</svg>

<svg xmlns="http://www.w3.org/2000/svg" width="24" height="24" fill="none"><path fill="currentColor" d="M6.25 3.75v2.422c0 .256.037.508.063.762-.002.023-.013.043-.013.066 0 .056.02.106.032.158a7.613 7.613 0 0 0 1.477 3.618c.284.37.441.842.441 1.325V19.5c0 1.24 1.009 2.25 2.25 2.25h3c1.241 0 2.25-1.01 2.25-2.25v-7.398c0-.483.157-.954.44-1.325a7.613 7.613 0 0 0 1.478-3.618c.012-.053.032-.102.032-.158 0-.023-.011-.043-.013-.066.026-.254.063-.506.063-.762V3.75c0-.827-.673-1.5-1.5-1.5h-8.5c-.827 0-1.5.673-1.5 1.5Zm8 8.352V19.5a.75.75 0 0 1-.75.75h-3a.75.75 0 0 1-.75-.75v-7.398c0-.81-.266-1.604-.75-2.237a6.08 6.08 0 0 1-1.021-2.114h8.041a6.071 6.071 0 0 1-1.021 2.114 3.7 3.7 0 0 0-.749 2.237Zm2-8.352v2.422c0 .026-.006.052-.006.078H7.757c0-.026-.006-.052-.006-.078V3.75h8.499Zm-8.5 0V3v.75Zm4.25 8.5a.75.75 0 0 1 .75.75v2a.75.75 0 0 1-1.5 0v-2a.75.75 0 0 1 .75-.75Z"/></svg>
